_includes/icons/ios-typewriter-with-paper.svg

<svg fill="#666" height="50" viewBox="0 0 50 50" width="50" xmlns="http://www.w3.org/2000/svg"><path d="m10.8125 2c-.476562.089844-.820312.511719-.8125 1v13h-5c-.03125 0-.0625 0-.09375 0s-.0625 0-.09375 0c-.476562.089844-.820312.511719-.8125 1v1h-4v6h4v21.5c0 1.367188 1.132813 2.5 2.5 2.5h37c1.367188 0 2.5-1.132812 2.5-2.5v-21.5h4v-6h-4v-1c0-.550781-.449219-1-1-1h-5v-13c0-.550781-.449219-1-1-1h-28c-.03125 0-.0625 0-.09375 0s-.0625 0-.09375 0zm1.1875 2h26v12.84375c-.003906.050781-.003906.105469 0 .15625v2 .09375 1.90625h-7.5c-1.921875 0-3.5 1.578125-3.5 3.5s1.578125 3.5 3.5 3.5h2.5c.566406 0 1 .433594 1 1s-.433594 1-1 1h-16c-.566406 0-1-.433594-1-1s.433594-1 1-1h2.5c1.921875 0 3.5-1.578125 3.5-3.5s-1.578125-3.5-3.5-3.5h-7.5v-1.84375c.003906-.050781.003906-.105469 0-.15625v-2c0-.03125 0-.0625 0-.09375zm9 11c-.738281 0-1.371094.402344-1.71875 1h-6.28125v2h6.28125c.347656.597656.980469 1 1.71875 1s1.371094-.402344 1.71875-1h4.5625c.347656.597656.980469 1 1.71875 1s1.371094-.402344 1.71875-1h6.28125v-2h-6.28125c-.347656-.597656-.980469-1-1.71875-1s-1.371094.402344-1.71875 1h-4.5625c-.347656-.597656-.980469-1-1.71875-1zm-15 3h4v1 .09375 2.90625c0 .550781.449219 1 1 1h8.5c.839844 0 1.5.660156 1.5 1.5s-.660156 1.5-1.5 1.5h-2.5c-1.644531 0-3 1.355469-3 3s1.355469 3 3 3h16c1.644531 0 3-1.355469 3-3s-1.355469-3-3-3h-2.5c-.839844 0-1.5-.660156-1.5-1.5s.660156-1.5 1.5-1.5h8.5c.550781 0 1-.449219 1-1v-2.84375c.003906-.050781.003906-.105469 0-.15625v-1h4v27.5c0 .285156-.214844.5-.5.5h-37c-.285156 0-.5-.214844-.5-.5zm-4 2h2v2h-2zm44 0h2v2h-2zm-35 14c-.550781 0-1 .449219-1 1s.449219 1 1 1 1-.449219 1-1-.449219-1-1-1zm4 0c-.550781 0-1 .449219-1 1s.449219 1 1 1 1-.449219 1-1-.449219-1-1-1zm4 0c-.550781 0-1 .449219-1 1s.449219 1 1 1 1-.449219 1-1-.449219-1-1-1zm4 0c-.550781 0-1 .449219-1 1s.449219 1 1 1 1-.449219 1-1-.449219-1-1-1zm4 0c-.550781 0-1 .449219-1 1s.449219 1 1 1 1-.449219 1-1-.449219-1-1-1zm4 0c-.550781 0-1 .449219-1 1s.449219 1 1 1 1-.449219 1-1-.449219-1-1-1zm4 0c-.550781 0-1 .449219-1 1s.449219 1 1 1 1-.449219 1-1-.449219-1-1-1zm4 0c-.550781 0-1 .449219-1 1s.449219 1 1 1 1-.449219 1-1-.449219-1-1-1zm-26 4c-.550781 0-1 .449219-1 1s.449219 1 1 1 1-.449219 1-1-.449219-1-1-1zm4 0c-.550781 0-1 .449219-1 1s.449219 1 1 1 1-.449219 1-1-.449219-1-1-1zm4 0c-.550781 0-1 .449219-1 1s.449219 1 1 1 1-.449219 1-1-.449219-1-1-1zm4 0c-.550781 0-1 .449219-1 1s.449219 1 1 1 1-.449219 1-1-.449219-1-1-1zm4 0c-.550781 0-1 .449219-1 1s.449219 1 1 1 1-.449219 1-1-.449219-1-1-1zm4 0c-.550781 0-1 .449219-1 1s.449219 1 1 1 1-.449219 1-1-.449219-1-1-1zm4 0c-.550781 0-1 .449219-1 1s.449219 1 1 1 1-.449219 1-1-.449219-1-1-1zm-21 4c-.550781 0-1 .449219-1 1s.449219 1 1 1h18c.550781 0 1-.449219 1-1s-.449219-1-1-1z"/></svg>

<svg xmlns="http://www.w3.org/2000/svg" viewBox="0 0 50 50" width="50" height="50" fill="#666"><path d="M 10.8125 2 C 10.335938 2.089844 9.992188 2.511719 10 3 L 10 16 L 5 16 C 4.96875 16 4.9375 16 4.90625 16 C 4.875 16 4.84375 16 4.8125 16 C 4.335938 16.089844 3.992188 16.511719 4 17 L 4 18 L 0 18 L 0 24 L 4 24 L 4 45.5 C 4 46.867188 5.132813 48 6.5 48 L 43.5 48 C 44.867188 48 46 46.867188 46 45.5 L 46 24 L 50 24 L 50 18 L 46 18 L 46 17 C 46 16.449219 45.550781 16 45 16 L 40 16 L 40 3 C 40 2.449219 39.550781 2 39 2 L 11 2 C 10.96875 2 10.9375 2 10.90625 2 C 10.875 2 10.84375 2 10.8125 2 Z M 12 4 L 38 4 L 38 16.84375 C 37.996094 16.894531 37.996094 16.949219 38 17 L 38 19 C 38 19.03125 38 19.0625 38 19.09375 L 38 21 L 30.5 21 C 28.578125 21 27 22.578125 27 24.5 C 27 26.421875 28.578125 28 30.5 28 L 33 28 C 33.566406 28 34 28.433594 34 29 C 34 29.566406 33.566406 30 33 30 L 17 30 C 16.433594 30 16 29.566406 16 29 C 16 28.433594 16.433594 28 17 28 L 19.5 28 C 21.421875 28 23 26.421875 23 24.5 C 23 22.578125 21.421875 21 19.5 21 L 12 21 L 12 19.15625 C 12.003906 19.105469 12.003906 19.050781 12 19 L 12 17 C 12 16.96875 12 16.9375 12 16.90625 Z M 21 15 C 20.261719 15 19.628906 15.402344 19.28125 16 L 13 16 L 13 18 L 19.28125 18 C 19.628906 18.597656 20.261719 19 21 19 C 21.738281 19 22.371094 18.597656 22.71875 18 L 27.28125 18 C 27.628906 18.597656 28.261719 19 29 19 C 29.738281 19 30.371094 18.597656 30.71875 18 L 37 18 L 37 16 L 30.71875 16 C 30.371094 15.402344 29.738281 15 29 15 C 28.261719 15 27.628906 15.402344 27.28125 16 L 22.71875 16 C 22.371094 15.402344 21.738281 15 21 15 Z M 6 18 L 10 18 L 10 19 C 10 19.03125 10 19.0625 10 19.09375 L 10 22 C 10 22.550781 10.449219 23 11 23 L 19.5 23 C 20.339844 23 21 23.660156 21 24.5 C 21 25.339844 20.339844 26 19.5 26 L 17 26 C 15.355469 26 14 27.355469 14 29 C 14 30.644531 15.355469 32 17 32 L 33 32 C 34.644531 32 36 30.644531 36 29 C 36 27.355469 34.644531 26 33 26 L 30.5 26 C 29.660156 26 29 25.339844 29 24.5 C 29 23.660156 29.660156 23 30.5 23 L 39 23 C 39.550781 23 40 22.550781 40 22 L 40 19.15625 C 40.003906 19.105469 40.003906 19.050781 40 19 L 40 18 L 44 18 L 44 45.5 C 44 45.785156 43.785156 46 43.5 46 L 6.5 46 C 6.214844 46 6 45.785156 6 45.5 Z M 2 20 L 4 20 L 4 22 L 2 22 Z M 46 20 L 48 20 L 48 22 L 46 22 Z M 11 34 C 10.449219 34 10 34.449219 10 35 C 10 35.550781 10.449219 36 11 36 C 11.550781 36 12 35.550781 12 35 C 12 34.449219 11.550781 34 11 34 Z M 15 34 C 14.449219 34 14 34.449219 14 35 C 14 35.550781 14.449219 36 15 36 C 15.550781 36 16 35.550781 16 35 C 16 34.449219 15.550781 34 15 34 Z M 19 34 C 18.449219 34 18 34.449219 18 35 C 18 35.550781 18.449219 36 19 36 C 19.550781 36 20 35.550781 20 35 C 20 34.449219 19.550781 34 19 34 Z M 23 34 C 22.449219 34 22 34.449219 22 35 C 22 35.550781 22.449219 36 23 36 C 23.550781 36 24 35.550781 24 35 C 24 34.449219 23.550781 34 23 34 Z M 27 34 C 26.449219 34 26 34.449219 26 35 C 26 35.550781 26.449219 36 27 36 C 27.550781 36 28 35.550781 28 35 C 28 34.449219 27.550781 34 27 34 Z M 31 34 C 30.449219 34 30 34.449219 30 35 C 30 35.550781 30.449219 36 31 36 C 31.550781 36 32 35.550781 32 35 C 32 34.449219 31.550781 34 31 34 Z M 35 34 C 34.449219 34 34 34.449219 34 35 C 34 35.550781 34.449219 36 35 36 C 35.550781 36 36 35.550781 36 35 C 36 34.449219 35.550781 34 35 34 Z M 39 34 C 38.449219 34 38 34.449219 38 35 C 38 35.550781 38.449219 36 39 36 C 39.550781 36 40 35.550781 40 35 C 40 34.449219 39.550781 34 39 34 Z M 13 38 C 12.449219 38 12 38.449219 12 39 C 12 39.550781 12.449219 40 13 40 C 13.550781 40 14 39.550781 14 39 C 14 38.449219 13.550781 38 13 38 Z M 17 38 C 16.449219 38 16 38.449219 16 39 C 16 39.550781 16.449219 40 17 40 C 17.550781 40 18 39.550781 18 39 C 18 38.449219 17.550781 38 17 38 Z M 21 38 C 20.449219 38 20 38.449219 20 39 C 20 39.550781 20.449219 40 21 40 C 21.550781 40 22 39.550781 22 39 C 22 38.449219 21.550781 38 21 38 Z M 25 38 C 24.449219 38 24 38.449219 24 39 C 24 39.550781 24.449219 40 25 40 C 25.550781 40 26 39.550781 26 39 C 26 38.449219 25.550781 38 25 38 Z M 29 38 C 28.449219 38 28 38.449219 28 39 C 28 39.550781 28.449219 40 29 40 C 29.550781 40 30 39.550781 30 39 C 30 38.449219 29.550781 38 29 38 Z M 33 38 C 32.449219 38 32 38.449219 32 39 C 32 39.550781 32.449219 40 33 40 C 33.550781 40 34 39.550781 34 39 C 34 38.449219 33.550781 38 33 38 Z M 37 38 C 36.449219 38 36 38.449219 36 39 C 36 39.550781 36.449219 40 37 40 C 37.550781 40 38 39.550781 38 39 C 38 38.449219 37.550781 38 37 38 Z M 16 42 C 15.449219 42 15 42.449219 15 43 C 15 43.550781 15.449219 44 16 44 L 34 44 C 34.550781 44 35 43.550781 35 43 C 35 42.449219 34.550781 42 34 42 Z"/></svg>
